X: 45
T:Minuett. TBe.045
M:C|
L:1/4
Q:80
S:Thomas Bennet MS,1718, VWML
R:minuet
O:England
N:1 - see earlier note re naturals. 2 - shown dotted in M
H:1718
Z:C.  Graebe
K:C minor
"1"g f/g/ e | d e/d/ c | dc=B | c2 G | c/d/e/d/ c | f>ga |! 
g (f/e/)d/c/ | =B/c/ d G | g/a/f/g/ e |\
d/e/c/d/ =B | cG=B | c2 d |!
e/f/gc | =Bdg | f d2 | c3 ||\
g3/4a/4|b2  g |!
 ege | a a/g/f/e/ | dfd  | g g/f/e/d/ | cde |\ 
f (d3/2 c/4d/4) |!
e2 g/a/ | b/(a/g/)f/e/d/ | c/d/ e (/f/g/) |a/g/f/e/d/c/ | !
=B3/4c/4 d e3/4f/4 | g2 c | G2 g | f d2 | c3 ||
